ligands/bidentate/dithiolene.svg

<svg height="256" viewBox="0 0 256 256" width="256" xmlns="http://www.w3.org/2000/svg"><path d="m0 0h256v256h-256z" fill="#fff"/><ellipse cx="204.8" cy="95.3" fill="#ff7f7f" fill-rule="evenodd" rx="35.3" ry="35.3" stroke="#ff7f7f"/><g fill="none" stroke="#000" stroke-width="2"><path d="m165 212.3-101 11.2"/><path d="m64 223.5-48.5-107.3"/><path d="m15.5 116.2 71.2-64.7"/><path d="m184.2 194.7 15.6-75.5"/><path d="m118.4 46.1 70.5 40.2"/><path d="m69 222.9-5 .6-2.5-5.4" stroke-miterlimit="10"/><path d="m18 121.6-2.5-5.4 3.6-3.2" stroke-miterlimit="10"/></g><text x="192.8" y="115.3"/><text font-family="sans-serif" font-size="40" x="168.9" y="230.6">S</text><text font-family="sans-serif" font-size="40" x="90.6" y="57">S</text></svg>

<?xml version='1.0' encoding='iso-8859-1'?>
<svg version='1.1' baseProfile='full'
              xmlns='http://www.w3.org/2000/svg'
                      xmlns:rdkit='http://www.rdkit.org/xml'
                      xmlns:xlink='http://www.w3.org/1999/xlink'
                  xml:space='preserve'
width='256px' height='256px' viewBox='0 0 256 256'>
<!-- END OF HEADER -->
<rect style='opacity:1.0;fill:#FFFFFF;stroke:none' width='256.0' height='256.0' x='0.0' y='0.0'> </rect>
<ellipse cx='204.8' cy='95.3' rx='35.3' ry='35.3' class='atom-0'  style='fill:#FF7F7F;fill-rule:evenodd;stroke:#FF7F7F;stroke-width:1.0px;stroke-linecap:butt;stroke-linejoin:miter;stroke-opacity:1' />
<path class='bond-0 atom-1 atom-2' d='M 165.0,212.3 L 64.0,223.5' style='fill:none;fill-rule:evenodd;stroke:#000000;stroke-width:2.0px;stroke-linecap:butt;stroke-linejoin:miter;stroke-opacity:1' />
<path class='bond-1 atom-2 atom-3' d='M 64.0,223.5 L 15.5,116.2' style='fill:none;fill-rule:evenodd;stroke:#000000;stroke-width:2.0px;stroke-linecap:butt;stroke-linejoin:miter;stroke-opacity:1' />
<path class='bond-2 atom-3 atom-4' d='M 15.5,116.2 L 86.7,51.5' style='fill:none;fill-rule:evenodd;stroke:#000000;stroke-width:2.0px;stroke-linecap:butt;stroke-linejoin:miter;stroke-opacity:1' />
<path class='bond-3 atom-1 atom-0' d='M 184.2,194.7 L 199.8,119.2' style='fill:none;fill-rule:evenodd;stroke:#000000;stroke-width:2.0px;stroke-linecap:butt;stroke-linejoin:miter;stroke-opacity:1' />
<path class='bond-4 atom-4 atom-0' d='M 118.4,46.1 L 188.9,86.3' style='fill:none;fill-rule:evenodd;stroke:#000000;stroke-width:2.0px;stroke-linecap:butt;stroke-linejoin:miter;stroke-opacity:1' />
<path d='M 69.0,222.9 L 64.0,223.5 L 61.5,218.1' style='fill:none;stroke:#000000;stroke-width:2.0px;stroke-linecap:butt;stroke-linejoin:miter;stroke-miterlimit:10;stroke-opacity:1;' />
<path d='M 18.0,121.6 L 15.5,116.2 L 19.1,113.0' style='fill:none;stroke:#000000;stroke-width:2.0px;stroke-linecap:butt;stroke-linejoin:miter;stroke-miterlimit:10;stroke-opacity:1;' />
<text x='192.8' y='115.3' class='atom-0' style='font-size:40px;font-style:normal;font-weight:normal;fill-opacity:1;stroke:none;font-family:sans-serif;text-anchor:start;fill:#000000' ></text>
<text x='168.9' y='230.6' class='atom-1' style='font-size:40px;font-style:normal;font-weight:normal;fill-opacity:1;stroke:none;font-family:sans-serif;text-anchor:start;fill:#000000' >S</text>
<text x='90.6' y='57.0' class='atom-4' style='font-size:40px;font-style:normal;font-weight:normal;fill-opacity:1;stroke:none;font-family:sans-serif;text-anchor:start;fill:#000000' >S</text>
</svg>
